!!!COM: Marenzio, Luca
!!!CDT:
!!!PTL: Il secondo libro de madrigali a sei voci
!!!PPP: Venice
!!!PPR: Angelo Gardano
!!!PDT: 1584
!!!PUB-format:
!!!RISM: M 504
!!!rime: 395
!!!OTL: In un bel bosco leggiadre fronde
!!!AGN: Madrigal
!!!SCT: Trm0395b
!!!SCA: Trm0395b
!!!original-voices: 6
!!!extant-voices: 6
!!!complete: Y
!!!final: (E)C
**kern	**text	**kern	**text	**kern	**text	**kern	**text	**kern	**text	**kern	**text
*part6	*part6	*part5	*part5	*part4	*part4	*part3	*part3	*part2	*part2	*part1	*part1
*staff6	*staff6	*staff5	*staff5	*staff4	*staff4	*staff3	*staff3	*staff2	*staff2	*staff1	*staff1
*I"Basso	*	*I"Sesto	*	*I"Tenore	*	*I"Quinto	*	*I"Alto	*	*I"Canto	*
*I'B	*	*I'VI	*	*I'T	*	*I'V	*	*I'A	*	*I'C	*
*oclefF4	*	*oclefC4	*	*oclefC4	*	*oclefC3	*	*oclefC3	*	*oclefC1	*
*clefF4	*	*clefGv2	*	*clefGv2	*	*clefG2	*	*clefG2	*	*clefG2	*
*k[]	*	*k[]	*	*k[]	*	*k[]	*	*k[]	*	*k[]	*
*a:	*	*a:	*	*a:	*	*a:	*	*a:	*	*a:	*
*omet(C)	*	*omet(C)	*	*omet(C)	*	*omet(C)	*	*omet(C)	*	*omet(C)	*
*M4/2	*	*M4/2	*	*M4/2	*	*M4/2	*	*M4/2	*	*M4/2	*
=1	=1	=1	=1	=1	=1	=1	=1	=1	=1	=1	=1
0r	.	0r	.	0r	.	2c	In	1r	.	1r	.
.	.	.	.	.	.	4c	un	.	.	.	.
.	.	.	.	.	.	4B	bel	.	.	.	.
.	.	.	.	.	.	4.e	bo-	2c	In	1g	In
.	.	.	.	.	.	8d	-sco	.	.	.	.
.	.	.	.	.	.	4e	di	4c	un	.	.
.	.	.	.	.	.	4d	leg-	4B	bel	.	.
=2	=2	=2	=2	=2	=2	=2	=2	=2	=2	=2	=2
0r	.	0r	.	0r	.	8cL	-gia-	4.e	bo-	2g	un
.	.	.	.	.	.	8B	.	.	.	.	.
.	.	.	.	.	.	8c	.	.	.	.	.
.	.	.	.	.	.	8dJ	.	8d	-sco	.	.
.	.	.	.	.	.	4c	.	4e	di	2g	bel
.	.	.	.	.	.	4B	-dre	4d	leg-	.	.
.	.	.	.	.	.	4.e	fron-	8cL	-gia-	1g	bo-
.	.	.	.	.	.	.	.	8B	.	.	.
.	.	.	.	.	.	.	.	8c	.	.	.
.	.	.	.	.	.	8d	.	8dJ	.	.	.
.	.	.	.	.	.	8eL	.	4c	.	.	.
.	.	.	.	.	.	8fJ	.	.	.	.	.
.	.	.	.	.	.	[4g	.	4e	-dre	.	.
=3	=3	=3	=3	=3	=3	=3	=3	=3	=3	=3	=3
0r	.	0r	.	0r	.	4g]	.	4.d	fron-	1a	-sco
.	.	.	.	.	.	8f#XL	.	.	.	.	.
.	.	.	.	.	.	8eJ	.	8c#X	.	.	.
.	.	.	.	.	.	2f#X	.	2d	.	.	.
.	.	.	.	.	.	2g	-de	4G	-de	4.b	di
.	.	.	.	.	.	.	.	4.g	Ch'om-	.	.
.	.	.	.	.	.	.	.	.	.	8cc	leg-
.	.	.	.	.	.	2r	.	.	.	4b	-gia-
.	.	.	.	.	.	.	.	8g	-bra	.	.
.	.	.	.	.	.	.	.	4f	si	4a	-dre
=4	=4	=4	=4	=4	=4	=4	=4	=4	=4	=4	=4
0r	.	0r	.	0r	.	4r	.	2e	fa,	4.b	fron-
.	.	.	.	.	.	4.g	Ch'om-	.	.	.	.
.	.	.	.	.	.	.	.	.	.	16aL	.
.	.	.	.	.	.	.	.	.	.	16gJ	.
.	.	.	.	.	.	.	.	2r	.	2a	.
.	.	.	.	.	.	8g	-bra	.	.	.	.
.	.	.	.	.	.	4f	si	.	.	.	.
.	.	.	.	.	.	4.e	fa	4r	.	1b	-de
.	.	.	.	.	.	.	.	4.g	Ch'om-	.	.
.	.	.	.	.	.	8e	con	.	.	.	.
.	.	.	.	.	.	4e	le	.	.	.	.
.	.	.	.	.	.	.	.	8g	-bra	.	.
.	.	.	.	.	.	4d	ra-	4f	si	.	.
=5	=5	=5	=5	=5	=5	=5	=5	=5	=5	=5	=5
0r	.	0r	.	0r	.	2.c	-mo-	4.e	fa	4r	.
.	.	.	.	.	.	.	.	.	.	4.cc	Ch'om-
.	.	.	.	.	.	.	.	8e	con	.	.
.	.	.	.	.	.	.	.	4e	le	.	.
.	.	.	.	.	.	.	.	.	.	8cc	-bra
.	.	.	.	.	.	4G	-se	4d	ra-	4b	si
.	.	.	.	.	.	8AL	brac-	2.c	-mo-	4.ee	fa
.	.	.	.	.	.	8B	.	.	.	.	.
.	.	.	.	.	.	8c	.	.	.	.	.
.	.	.	.	.	.	8dJ	.	.	.	8dd	con
.	.	.	.	.	.	8eL	.	.	.	4cc	le
.	.	.	.	.	.	8f	.	.	.	.	.
.	.	.	.	.	.	8g	.	4G	-se	4b	ra-
.	.	.	.	.	.	8fJ	.	.	.	.	.
=6	=6	=6	=6	=6	=6	=6	=6	=6	=6	=6	=6
0r	.	0r	.	0r	.	8eL	.	8AL	brac-	4cc	-mo-
.	.	.	.	.	.	8d	.	8B	.	.	.
.	.	.	.	.	.	8c	.	8c	.	4g	-se
.	.	.	.	.	.	8BJ	.	8dJ	.	.	.
.	.	.	.	.	.	4c	.	8eL	.	4.g	brac-
.	.	.	.	.	.	.	.	8fJ	.	.	.
.	.	.	.	.	.	8BL	.	2g	.	.	.
.	.	.	.	.	.	8AJ	.	.	.	8a	.
.	.	.	.	.	.	1G	.	.	.	4b	.
.	.	.	.	.	.	.	.	8fL	.	2cc	.
.	.	.	.	.	.	.	.	8eJ	.	.	.
.	.	.	.	.	.	.	.	2d	.	.	.
.	.	.	.	.	.	.	.	.	.	4b	.
=7	=7	=7	=7	=7	=7	=7	=7	=7	=7	=7	=7
1r	.	1r	.	1r	.	1c	-cia,	1e	-cia,	1cc	-cia,
1C	A-	1e	A-	1c	A-	2r	.	2r	.	1r	.
.	.	.	.	.	.	[2G	A-	[2g	A-	.	.
=8	=8	=8	=8	=8	=8	=8	=8	=8	=8	=8	=8
1G	-mor,	1d	-mor,	1B	-mor,	2G]	.	2g]	.	1g	A-
.	.	.	.	.	.	1d	-mor,	1G	-mor,	.	.
4r	.	4r	.	1r	.	.	.	.	.	1dd	-mor,
4G	che	4B	che	.	.	.	.	.	.	.	.
4G	va	4B	va	.	.	2r	.	2r	.	.	.
4G	de	4B	de	.	.	.	.	.	.	.	.
=9	=9	=9	=9	=9	=9	=9	=9	=9	=9	=9	=9
4F	l'al-	4A	l'al-	0r	.	1r	.	1c	A-	1r	.
4G	-me	4B	-me	.	.	.	.	.	.	.	.
4A	no-	4c	no-	.	.	.	.	.	.	.	.
4F	-stre a	4A	-stre a	.	.	.	.	.	.	.	.
2G	cac-	2B	cac-	.	.	4r	.	1g	-mor,	4r	.
.	.	.	.	.	.	4d	che	.	.	4b	che
2G	-cia,	2B	-cia,	.	.	4d	va	.	.	4b	va
.	.	.	.	.	.	4e	de	.	.	4b	de
=10	=10	=10	=10	=10	=10	=10	=10	=10	=10	=10	=10
1r	.	1r	.	1r	.	4f	l'al-	1r	.	4a	l'al-
.	.	.	.	.	.	4g	-me	.	.	4b	-me
.	.	.	.	.	.	4a	no-	.	.	4cc	no-
.	.	.	.	.	.	4f	-stre a	.	.	4a	-stre a
2r	.	2G	A-	4r	.	2g	cac-	4r	.	2b	cac-
.	.	.	.	4B	che	.	.	4d	che	.	.
2GG	A-	2d	-mor,	4B	va	2g	-cia	4d	va	2b	-cia,
.	.	.	.	4B	de	.	.	4e	de	.	.
=11	=11	=11	=11	=11	=11	=11	=11	=11	=11	=11	=11
2D	-mor,	0r	.	4A	l'al-	0r	.	4f	l'al-	1r	.
.	.	.	.	4B	-me	.	.	4g	-me	.	.
2AA	A-	.	.	4c	no-	.	.	4a	no-	.	.
.	.	.	.	4A	-stre a	.	.	4f	-stre a	.	.
4E	-mor,	.	.	2B	cac-	.	.	2g	cac-	4r	.
4G	che	.	.	.	.	.	.	.	.	4b	<che
4G	va	.	.	2d	-cia	.	.	2g	-cia	4b	va
4G	de	.	.	.	.	.	.	.	.	4b	de
=12	=12	=12	=12	=12	=12	=12	=12	=12	=12	=12	=12
4F	l'al-	2c	Te-	1r	.	1r	.	0r	.	4a	l'al-
4G	-me	.	.	.	.	.	.	.	.	4b	-me
4A	no-	2c	-se,	.	.	.	.	.	.	4cc	no-
4F	-stre a	.	.	.	.	.	.	.	.	4a	-stre a
2G	cac-	1r	.	2d	Te-	2g	Te-	.	.	2b	cac-
2G	-cia	.	.	2d	-se	2g	-se	.	.	2b	-cia>
=13	=13	=13	=13	=13	=13	=13	=13	=13	=13	=13	=13
2C	Te-	2e	<Te-	2r	.	2r	.	2g	Te-	2cc	Te-
2C	-se	2e	-se>	4r	.	4r	.	2g	-se,	2cc	-se
.	.	.	.	4e	le	4g	le	.	.	.	.
1r	.	1r	.	4A	re-	4c	re-	2r	.	1r	.
.	.	.	.	4B	-te	4d	-te	.	.	.	.
.	.	.	.	4c	di	4e	di	2g	<Te-	.	.
.	.	.	.	4d	due	4B	due	.	.	.	.
=14	=14	=14	=14	=14	=14	=14	=14	=14	=14	=14	=14
0r	.	0r	.	4e	trec-	4c	trec-	2g	-se>	4r	.
.	.	.	.	4B	-ce	4d	-ce	.	.	4dd	le
.	.	.	.	2c	bion-	2e	bion-	2r	.	4g	re-
.	.	.	.	.	.	.	.	.	.	4a	-te
.	.	.	.	1G	-de,	1d	-de,	2r	.	4b	di
.	.	.	.	.	.	.	.	.	.	4cc	due
.	.	.	.	.	.	.	.	2g	le	4dd	trec-
.	.	.	.	.	.	.	.	.	.	4b	-ce
=15	=15	=15	=15	=15	=15	=15	=15	=15	=15	=15	=15
0r	.	1r	.	0r	.	2g	Te-	4c	re-	1cc	bion-
.	.	.	.	.	.	.	.	4d	-te	.	.
.	.	.	.	.	.	2g	-se	4e	di	.	.
.	.	.	.	.	.	.	.	4f	due	.	.
.	.	4r	.	.	.	1r	.	4g	trec-	4b	-de,
.	.	4c	le	.	.	.	.	4e	-ce	4ee	<le
.	.	4F	re-	.	.	.	.	2f	bion-	4a	re-
.	.	4G	-te	.	.	.	.	.	.	4b	-te
=16	=16	=16	=16	=16	=16	=16	=16	=16	=16	=16	=16
0r	.	4A	di	4r	.	4r	.	2e	-de;	4cc	di
.	.	4E	due	4e	le	4g	le	.	.	4b	due
.	.	4F	trac-	4A	re-	4c	re-	2r	.	4a	trec-
.	.	4D	-ce	4B	-te	4d	-te	.	.	4dd	-cie
.	.	1C	bion-	4c	di	4e	di	1r	.	1g	bion-
.	.	.	.	4d	due	4f	due	.	.	.	.
.	.	.	.	4e	trec-	4g	trec-	.	.	.	.
.	.	.	.	4c	-ce	4e	-ce	.	.	.	.
=17	=17	=17	=17	=17	=17	=17	=17	=17	=17	=17	=17
1r	.	1G	-de;	2B	bion-	2d	bion-	1r	.	0g	-de;>
.	.	.	.	2B	-de;	2d	-de;	.	.	.	.
2G	Co-	2B	Co-	1r	.	2r	.	2d	Co-	.	.
[2G	-sì il	[2B	-sì il	.	.	2d	Co-	[2g	-sì il	.	.
=18	=18	=18	=18	=18	=18	=18	=18	=18	=18	=18	=18
2G]	.	2B]	.	0r	.	2d	-sì il	2g]	.	0r	.
2D	mio	2A	mio	.	.	2d	mio	2f	mio	.	.
1E	cor,	1G#X	cor,	.	.	1B	cor,	1e	cor,	.	.
=19	=19	=19	=19	=19	=19	=19	=19	=19	=19	=19	=19
2C	<Co-	2r	.	2e	Co-	2g	Co-	0r	.	2cc	Co-
1C	-sì il	2c	Co-	1e	-sì il	1g	-sì il	.	.	1cc	-sì il
.	.	2C	-sì il	.	.	.	.	.	.	.	.
2GG	mio	2D	mio	2d	mio	2g	mio	.	.	2b	mio
=20	=20	=20	=20	=20	=20	=20	=20	=20	=20	=20	=20
1AA	cor,>	1A	cor,	1c#X	cor,	1e	cor,	2r	.	2a	cor,
.	.	.	.	.	.	.	.	4r	.	2a	c'ha-
.	.	.	.	.	.	.	.	4A	c'ha-	.	.
1r	.	1r	.	1r	.	1r	.	4B	-vea	2g	-vea
.	.	.	.	.	.	.	.	4c	di	.	.
.	.	.	.	.	.	.	.	4d	due	2f	di
.	.	.	.	.	.	.	.	4A	gio-	.	.
=21	=21	=21	=21	=21	=21	=21	=21	=21	=21	=21	=21
0r	.	0r	.	0r	.	4r	.	8cL	-con-	2e	due
.	.	.	.	.	.	.	.	8d	.	.	.
.	.	.	.	.	.	4c	gio-	8e	.	.	.
.	.	.	.	.	.	.	.	8fJ	.	.	.
.	.	.	.	.	.	8cL	-con-	2g	.	2ee	gio-
.	.	.	.	.	.	8d	.	.	.	.	.
.	.	.	.	.	.	8e	.	.	.	.	.
.	.	.	.	.	.	8fJ	.	.	.	.	.
.	.	.	.	.	.	4g	.	4G	-de	2dd	-con-
.	.	.	.	.	.	4G	-de	4.g	Lu-	.	.
.	.	.	.	.	.	4.c	Lu-	.	.	2cc	-de
.	.	.	.	.	.	.	.	8e	.	.	.
.	.	.	.	.	.	.	.	[4a	.	.	.
.	.	.	.	.	.	8d	.	.	.	.	.
=22	=22	=22	=22	=22	=22	=22	=22	=22	=22	=22	=22
0r	.	1r	.	0r	.	1e	.	4a]	.	1b	Lu-
.	.	.	.	.	.	.	.	8g#XL	.	.	.
.	.	.	.	.	.	.	.	8f#XJ	.	.	.
.	.	.	.	.	.	.	.	2g#X	.	.	.
.	.	4r	.	.	.	[1A	-ci	2a	-ci	1a	-ci
.	.	4A	se-	.	.	.	.	.	.	.	.
.	.	4c	-gui-	.	.	.	.	2r	.	.	.
.	.	4d	-ta	.	.	.	.	.	.	.	.
=23	=23	=23	=23	=23	=23	=23	=23	=23	=23	=23	=23
0r	.	4.e	la	0r	.	2A]	.	4r	.	4r	.
.	.	.	.	.	.	.	.	4A	se-	4c	se-
.	.	8f	fal-	.	.	.	.	.	.	.	.
.	.	4e	-la-	.	.	2r	.	4c	-gui-	4e	-gui-
.	.	4d	-ce	.	.	.	.	4d	-ta	4f	-ta
.	.	1c	trac-	.	.	1r	.	4.e	la	4.g	la
.	.	.	.	.	.	.	.	8f	fal-	8a	fal-
.	.	.	.	.	.	.	.	4e	-la-	4g	-la-
.	.	.	.	.	.	.	.	4a	-ce	4f	-ce
=24	=24	=24	=24	=24	=24	=24	=24	=24	=24	=24	=24
0r	.	1c	-cia,	0r	.	1r	.	2g	trac-	2e	trac-
.	.	.	.	.	.	.	.	2g	-cia,	2e	-cia,
.	.	4r	.	.	.	4r	.	4r	.	4r	.
.	.	4.F	Pre-	.	.	4.a	Pre-	4.f	Pre-	4.cc	Pre-
.	.	8F	-so	.	.	8a	-so	8f	-so	8cc	-so
.	.	4G	re-	.	.	4g	re-	4d	re-	4b	re-
=25	=25	=25	=25	=25	=25	=25	=25	=25	=25	=25	=25
1r	.	1D	-stò,	1r	.	1f#X	-stò,	1d	-stò,	1a	-stò,
4r	.	1r	.	4r	.	4r	.	4r	.	1r	.
4.C	Pre-	.	.	4.c	Pre-	4.g	<Pre-	4.e	<Pre-	.	.
8C	-so	.	.	8c	-so	8g	-so	8e	-so	.	.
4D	re-	.	.	4A	re-	4fnXi	re-	4d	re-	.	.
=26	=26	=26	=26	=26	=26	=26	=26	=26	=26	=26	=26
1E	-stò,	0r	.	1G#X	-stò,	1e	-stò,>	1B	-stò,>	0r	.
2A	co-	.	.	4r	.	4r	.	1r	.	.	.
.	.	.	.	4c	co-	4f	co-	.	.	.	.
4G	-m'a-	.	.	4B	-m'a-	4e	-m'a-	.	.	.	.
4F	-ni-	.	.	4A	-ni-	4d	-ni-	.	.	.	.
=27	=27	=27	=27	=27	=27	=27	=27	=27	=27	=27	=27
4G	-mal	0r	.	4B	-mal	4e	-mal	0r	.	0r	.
4F	s'al-	.	.	4A	s'al-	4d	s'al-	.	.	.	.
4F	-lac-	.	.	4A	-lac-	2.d	-lac-	.	.	.	.
8EL	.	.	.	8GL	.	.	.	.	.	.	.
8DJ	.	.	.	8FJ	.	.	.	.	.	.	.
1E	.	.	.	1G	.	.	.	.	.	.	.
.	.	.	.	.	.	8c#XL	.	.	.	.	.
.	.	.	.	.	.	8BJ	.	.	.	.	.
.	.	.	.	.	.	2c#X	.	.	.	.	.
=28	=28	=28	=28	=28	=28	=28	=28	=28	=28	=28	=28
4D	-cia	0r	.	2A	-cia	4d	-cia	4r	.	4r	.
4F	Ne'	.	.	.	.	4A	Ne'	4f	co-	4a	co-
2.C	bei	.	.	2r	.	2.c	bei	4e	-m'a-	4g	-m'a-
.	.	.	.	.	.	.	.	4d	-ni-	4f	-ni-
.	.	.	.	1r	.	.	.	4e	-mal	4g	-mal
4D	le-	.	.	.	.	4A	le-	4d	s'al-	4f	s'al-
2BB-X	-ga-	.	.	.	.	2D	-ga-	[2d	-lac-	4f	-lac-
.	.	.	.	.	.	.	.	.	.	8eL	.
.	.	.	.	.	.	.	.	.	.	8dJ	.
=29	=29	=29	=29	=29	=29	=29	=29	=29	=29	=29	=29
1AA	-mi,	1r	.	0r	.	1A	-mi,	4d]	.	1e	.
.	.	.	.	.	.	.	.	8c#iL	.	.	.
.	.	.	.	.	.	.	.	8BJ	.	.	.
.	.	.	.	.	.	.	.	2c#X	.	.	.
1r	.	2f	co-	.	.	2a	co-	4d	-cia	4d	-cia
.	.	.	.	.	.	.	.	4f	Ne'	4a	Ne'
.	.	4e	-m'a-	.	.	4g	-m'a-	[2cnXi	bei	[2cc	bei
.	.	4d	-ni-	.	.	4f	-ni-	.	.	.	.
=30	=30	=30	=30	=30	=30	=30	=30	=30	=30	=30	=30
0r	.	4e	-mal	0r	.	4g	-mal	4c]	.	4cc]	.
.	.	4d	s'al-	.	.	4f	s'al-	4d	le-	2a	le-
.	.	2.d	-lac-	.	.	4f	-lac-	2B-X	-ga-	.	.
.	.	.	.	.	.	8eL	.	.	.	4g	-ga-
.	.	.	.	.	.	8dJ	.	.	.	.	.
.	.	.	.	.	.	1e	.	1A	-mi,	1a	-mi,
.	.	8c#iL	.	.	.	.	.	.	.	.	.
.	.	8BJ	.	.	.	.	.	.	.	.	.
.	.	2c#X	.	.	.	.	.	.	.	.	.
=31	=31	=31	=31	=31	=31	=31	=31	=31	=31	=31	=31
4r	.	4d	-cia	4r	.	4f#X	-cia	0r	.	4r	.
4D	Ne'	4A	Ne'	4d	Ne'	4f#i	Ne'	.	.	4dd	Ne'
2.G	bei	2B	bei	2d	bei	2g	bei	.	.	2.b	bei
.	.	2e	le-	4G	le-	4g	le-	.	.	.	.
4A	le-	.	.	2c	-ga-	2e	-ga-	.	.	4cc	le-
2F	-ga-	2A	-ga-	.	.	.	.	.	.	[2a	-ga-
.	.	.	.	4A	-mi	4d	.	.	.	.	.
=32	=32	=32	=32	=32	=32	=32	=32	=32	=32	=32	=32
1E	-mi	1B	-mi	0r	.	0e	-mi	1r	.	4a]	.
.	.	.	.	.	.	.	.	.	.	8g#XL	.
.	.	.	.	.	.	.	.	.	.	8f#XJ	.
.	.	.	.	.	.	.	.	.	.	2g#X	.
4AA	ch'e'	1A	ch'e'	.	.	.	.	4c	ch'e'	2a	-mi
4AA	ne	.	.	.	.	.	.	4c	ne	.	.
8AAL	l'om-	.	.	.	.	.	.	8cL	l'om-	4e	ch'e'
8GG	.	.	.	.	.	.	.	8B	.	.	.
8AA	.	.	.	.	.	.	.	8c	.	4e	ne
8BBJ	.	.	.	.	.	.	.	8dJ	.	.	.
=33	=33	=33	=33	=33	=33	=33	=33	=33	=33	=33	=33
2C	.	1G	ne	4E	ch'e'	4c	ch'e'	4e	.	8eL	l'om-
.	.	.	.	.	.	.	.	.	.	8d	.
.	.	.	.	4E	ne	4G	ne	4c	-bra,	8e	.
.	.	.	.	.	.	.	.	.	.	8fJ	.
2C	-bra,	.	.	8EL	l'om-	8cL	l'om-	2r	.	2g	.
.	.	.	.	8D	.	8B	.	.	.	.	.
.	.	.	.	8E	.	8c	.	.	.	.	.
.	.	.	.	8FJ	.	8dJ	.	.	.	.	.
4C	ch'e'	1c	l'om-	2G	.	4e	.	4c	<ch'e'	2g	-bra,
4C	ne	.	.	.	.	4c	-bra,	4e	ne	.	.
8CL	l'om-	.	.	2G	-bra,	2r	.	8eL	l'om-	4g	ch'e'
8BB	.	.	.	.	.	.	.	8d	.	.	.
8C	.	.	.	.	.	.	.	8e	.	4g	ne
8DJ	.	.	.	.	.	.	.	8fJ	.	.	.
=34	=34	=34	=34	=34	=34	=34	=34	=34	=34	=34	=34
2E	.	1B	-bra a-	4G	<ch'e'	4e	ch'e'	4g	.	8gL	l'om-
.	.	.	.	.	.	.	.	.	.	8f#X	.
.	.	.	.	4G	ne	4B	ne	4e	-bra,>	8g	.
.	.	.	.	.	.	.	.	.	.	8aJ	.
2E	-bra,	.	.	8GL	l'om-	8eL	l'om-	2r	.	2b	.
.	.	.	.	8F#X	.	8d	.	.	.	.	.
.	.	.	.	8G	.	8e	.	.	.	.	.
.	.	.	.	8AJ	.	8fJ	.	.	.	.	.
4E	ch'e'	1e	-scon-	2B	.	2g	.	4G	ch'e'	2b	-bra,
4E	ne	.	.	.	.	.	.	4G	ne	.	.
8EL	l'om-	.	.	2B	-bra,>	2e	-bra,	8GL	l'om-	4b	ch'e'
8D	.	.	.	.	.	.	.	8F#X	.	.	.
8E	.	.	.	.	.	.	.	8G	.	4b	ne
8FJ	.	.	.	.	.	.	.	8AJ	.	.	.
=35	=35	=35	=35	=35	=35	=35	=35	=35	=35	=35	=35
0G	.	1d	-de,	4B	ch'e'	2r	.	4B	.	8bL	l'om-
.	.	.	.	.	.	.	.	.	.	8a	.
.	.	.	.	4B	ne	.	.	4G	-bra	8b	.
.	.	.	.	.	.	.	.	.	.	8ccJ	.
.	.	.	.	8BL	l'om-	4d	ch'e'	2r	.	1dd	.
.	.	.	.	8A	.	.	.	.	.	.	.
.	.	.	.	8B	.	4d	ne	.	.	.	.
.	.	.	.	8cJ	.	.	.	.	.	.	.
.	.	[1G	a-	2d	.	8BL	l'om-	2r	.	.	.
.	.	.	.	.	.	8A	.	.	.	.	.
.	.	.	.	.	.	8B	.	.	.	.	.
.	.	.	.	.	.	8cJ	.	.	.	.	.
.	.	.	.	2G	-bra a-	4d	.	[2g	a-	2b	-bra a-
.	.	.	.	.	.	4d	-bra a-	.	.	.	.
=36	=36	=36	=36	=36	=36	=36	=36	=36	=36	=36	=36
1C	-bra a-	1G]	.	[0E	-scon-	[0c	-scon-	4g]	.	2.ee	-scon-
.	.	.	.	.	.	.	.	4f	.	.	.
.	.	.	.	.	.	.	.	2e	.	.	.
.	.	.	.	.	.	.	.	.	.	4dd	.
[1AA	-scon-	[1A	-scon-	.	.	.	.	[1e	-scon-	2.cc	.
.	.	.	.	.	.	.	.	.	.	4b	.
=37	=37	=37	=37	=37	=37	=37	=37	=37	=37	=37	=37
1AA]	.	1A]	.	1E]	.	1c]	.	1e]	.	1a	.
1EEl	-de.	1G#Xl	-de.	1El	-de.	1Bl	-de.	1el	-de.	1bl	-de.
=38||	=38||	=38||	=38||	=38||	=38||	=38||	=38||	=38||	=38||	=38||	=38||
!!LO:TX:a:t=Seconda parte.
0E	O	0B	O	0r	.	0e	O	0r	.	0g#X	O
=39	=39	=39	=39	=39	=39	=39	=39	=39	=39	=39	=39
1A	dol-	1c	dol-	0r	.	1.e	dol-	0r	.	1a	dol-
1G#X	-ce	2B	-ce	.	.	.	.	.	.	1b	-ce
.	.	[2e	lac-	.	.	2B	-ce	.	.	.	.
=40	=40	=40	=40	=40	=40	=40	=40	=40	=40	=40	=40
0A	lac-	4e]	.	0r	.	2.e	lac-	0r	.	2.cc	lac-
.	.	4d	.	.	.	.	.	.	.	.	.
.	.	4c	.	.	.	.	.	.	.	.	.
.	.	4d	.	.	.	4d	.	.	.	4b	.
.	.	1e	.	.	.	4c	.	.	.	4a	.
.	.	.	.	.	.	4B	.	.	.	4g	.
.	.	.	.	.	.	[2c	.	.	.	[2a	.
=41	=41	=41	=41	=41	=41	=41	=41	=41	=41	=41	=41
1E	-cio,	1e	-cio,	1r	.	2c]	.	1r	.	2a]	.
.	.	.	.	.	.	2B	-cio,	.	.	2g#X	-cio,
1r	.	4r	.	2E	o	1r	.	2e	O	4r	.
.	.	4B	o	.	.	.	.	.	.	4g#X	o
.	.	4c	va-	4A	va-	.	.	4e	va-	4a	va-
.	.	4d	-ghe	4G	-ghe	.	.	[4g	-ghe	4b	-ghe
=42	=42	=42	=42	=42	=42	=42	=42	=42	=42	=42	=42
0r	.	4.e	re-	4.c	re-	1r	.	4g]	.	0cc	re-
.	.	.	.	.	.	.	.	4.c	re-	.	.
.	.	8d	.	8d	.	.	.	.	.	.	.
.	.	8cL	.	8eL	.	.	.	.	.	.	.
.	.	8B	.	8d	.	.	.	8d	.	.	.
.	.	8A	.	8c	.	.	.	2e	.	.	.
.	.	8BJ	.	8BJ	.	.	.	.	.	.	.
.	.	4.c	.	4.A	.	2r	.	.	.	.	.
.	.	.	.	.	.	.	.	4.A	-ti,	.	.
.	.	8B	.	8B	.	.	.	.	.	.	.
.	.	8AL	.	8cL	.	4r	.	.	.	.	.
.	.	8G	.	8B	.	.	.	8B	.	.	.
.	.	8F	.	8A	.	4A	o	4c	.	.	.
.	.	8GJ	.	8GJ	.	.	.	.	.	.	.
=43	=43	=43	=43	=43	=43	=43	=43	=43	=43	=43	=43
0r	.	1A	.	0F	.	4d	va-	4r	.	1a	-ti,
.	.	.	.	.	.	4c	-ghe	4A	o	.	.
.	.	.	.	.	.	4.f	re-	4d	va-	.	.
.	.	.	.	.	.	.	.	4c	-ghe	.	.
.	.	.	.	.	.	8g	.	.	.	.	.
.	.	1A	-ti,	.	.	4.a	.	4.f	re-	4r	.
.	.	.	.	.	.	.	.	.	.	2cc	o
.	.	.	.	.	.	8g	.	8g	.	.	.
.	.	.	.	.	.	8fL	.	8aL	.	.	.
.	.	.	.	.	.	8e	.	8g	.	.	.
.	.	.	.	.	.	8d	.	8f	.	[4dd	bo-
.	.	.	.	.	.	8cJ	.	8eJ	.	.	.
=44	=44	=44	=44	=44	=44	=44	=44	=44	=44	=44	=44
0r	.	0r	.	1G	-ti, o	2B	.	2d	.	8dd]L	.
.	.	.	.	.	.	.	.	.	.	8cc	.
.	.	.	.	.	.	.	.	.	.	8b	.
.	.	.	.	.	.	.	.	.	.	8aJ	.
.	.	.	.	.	.	2B	-ti, o	4d	-ti, o	2g	.
.	.	.	.	.	.	.	.	4.e	bo-	.	.
.	.	.	.	1A	bo-	8cL	bo-	.	.	4e	-sco
.	.	.	.	.	.	8B	.	8dL	.	.	.
.	.	.	.	.	.	8A	.	8c	.	4ee	Vez-
.	.	.	.	.	.	8BJ	.	8BJ	.	.	.
.	.	.	.	.	.	8cL	.	8AL	.	4.ee	-zo-
.	.	.	.	.	.	8d	.	8B	.	.	.
.	.	.	.	.	.	8e	.	8c	.	.	.
.	.	.	.	.	.	8fJ	.	8dJ	.	16ddL	.
.	.	.	.	.	.	.	.	.	.	16ccJ	.
=45	=45	=45	=45	=45	=45	=45	=45	=45	=45	=45	=45
0r	.	2r	.	2G	-sco	2g	.	2e	.	4b	.
.	.	.	.	.	.	.	.	.	.	2cc	.
.	.	4r	.	2G	Vez-	2g	-sco	4d	-sco	.	.
.	.	4d	Vez-	.	.	.	.	4g	Vez-	4b	.
.	.	4.e	-zo-	8CL	-zo-	2r	.	4.g	-zo-	4cc	-so,
.	.	.	.	8D	.	.	.	.	.	.	.
.	.	.	.	8E	.	.	.	.	.	4g	o
.	.	16dL	.	8FJ	.	.	.	16fL	.	.	.
.	.	16cJ	.	.	.	.	.	16eJ	.	.	.
.	.	2B	.	2G	.	4r	.	4d	.	2g	bo-
.	.	.	.	.	.	4g	Vez-	4d	-so,	.	.
=46	=46	=46	=46	=46	=46	=46	=46	=46	=46	=46	=46
0r	.	4.c	-so,	4A	-so,	8cL	-zo-	4r	.	4e	-sco
.	.	.	.	.	.	8d	.	.	.	.	.
.	.	.	.	4c	Vez-	8e	.	4g	Vez-	4ee	Vez-
.	.	8d	.	.	.	8fJ	.	.	.	.	.
.	.	4e	.	4.c	-zo-	1.g	.	8cL	-zo-	4.ee	-zo-
.	.	.	.	.	.	.	.	8d	.	.	.
.	.	4c	Vez-	.	.	.	.	8e	.	.	.
.	.	.	.	16BL	.	.	.	8fJ	.	16ddL	.
.	.	.	.	16AJ	.	.	.	.	.	16ccJ	.
.	.	1d	-zo-	1G	.	.	.	4.g	.	4b	.
.	.	.	.	.	.	.	.	.	.	2cc	.
.	.	.	.	.	.	.	.	16fL	.	.	.
.	.	.	.	.	.	.	.	16eJ	.	.	.
.	.	.	.	.	.	.	.	2d	.	.	.
.	.	.	.	.	.	.	.	.	.	4b	.
=47	=47	=47	=47	=47	=47	=47	=47	=47	=47	=47	=47
2r	.	1c	-so,	1C	-so,	2g	-so,	1e	-so,	1cc	-so,
2C	o	.	.	.	.	4r	.	.	.	.	.
.	.	.	.	.	.	4g	o	.	.	.	.
4.C	cac-	2r	.	4r	.	4.e	cac-	4r	.	2r	.
.	.	.	.	4c	o	.	.	4g	o	.	.
8D	-cia-	.	.	.	.	8f	-cia-	.	.	.	.
4E	-tor,	2G	o	4c	cac-	2g	-tor	4.e	cac-	4r	.
4C	o	.	.	4c	-cia-	.	.	.	.	[4g	o
.	.	.	.	.	.	.	.	8f	-cia-	.	.
=48	=48	=48	=48	=48	=48	=48	=48	=48	=48	=48	=48
4.E	cac-	4.G	cac-	1B	-tor	2r	.	1g	-tor,	4g]	.
.	.	.	.	.	.	.	.	.	.	4.b	cac-
8F	-cia-	8A	-cia-	.	.	.	.	.	.	.	.
2.G	-tor	2.B	-tor	.	.	1d	che	.	.	.	.
.	.	.	.	.	.	.	.	.	.	8cc	-cia-
.	.	.	.	.	.	.	.	.	.	2dd	-tor
.	.	.	.	2G	che	.	.	1r	.	.	.
4G	che	4B	che	.	.	.	.	.	.	4b	che
4F	mi	4A	mi	4c	mi	4f	mi	.	.	4cc	mi
4D	to-	4B	to-	4F	to-	4f	to-	.	.	4dd	to-
=49	=49	=49	=49	=49	=49	=49	=49	=49	=49	=49	=49
2C	-glie-	1c	-glie-	2G	-glie-	2.e	-glie-	0r	.	1ee	-glie-
4C	-sti,	.	.	4G	-sti,	.	.	.	.	.	.
4AA	Il	.	.	4c	Il	4f#X	-sti,	.	.	.	.
1E	co-	4B	-sti,	2e	co-	4g#X	Il	.	.	4ee	-sti,
.	.	4e	Il	.	.	2a	co-	.	.	4cc	Il
.	.	[2e	co-	2E	-re,	.	.	.	.	2b	co-
.	.	.	.	.	.	4g#X	.	.	.	.	.
=50	=50	=50	=50	=50	=50	=50	=50	=50	=50	=50	=50
1AA	-re,	2e]	.	4.A	do-	2a	-re,	4.c	do-	1a	-re,
.	.	.	.	8B	-ve	.	.	8d	-ve	.	.
.	.	1A	-re,	2c	l'hai,	2r	.	4e	l'hai,	.	.
.	.	.	.	.	.	.	.	4e	cru-	.	.
4.D	do-	.	.	2r	.	1r	.	4d	-de-	4.f	do-
.	.	.	.	.	.	.	.	4d	-le, a-	.	.
8E	-ve	.	.	.	.	.	.	.	.	8g	-ve
4F	l'hai,	2r	.	4.A	do-	.	.	2c	-sco-	4a	l'hai,
4F	cru-	.	.	.	.	.	.	.	.	4a	cru-
.	.	.	.	8B	-ve	.	.	.	.	.	.
=51	=51	=51	=51	=51	=51	=51	=51	=51	=51	=51	=51
4F	-de-	4.F	do-	4c	l'hai,	4.A	do-	1f	-sto,	4a	-de-
4F	-le, a-	.	.	4c	cru-	.	.	.	.	4a	-le, a-
.	.	8G	-ve	.	.	8B	-ve	.	.	.	.
1F	-sco-	4A	l'hai,	4f	-de-	4c	l'hai,	.	.	1a	-sco-
.	.	4A	cru-	4f	-le, a-	4c	cru-	.	.	.	.
.	.	4A	-de-	2F	-sco-	4c	-de-	4.f	<do-	.	.
.	.	4A	-le, a-	.	.	4c	-le, a-	.	.	.	.
.	.	.	.	.	.	.	.	8g	-ve	.	.
2FF	-sto,	[2A	-sco-	2F	-sto,	[2c	-sco-	4a	l'hai,	2A	-sto,
.	.	.	.	.	.	.	.	4a	cru-	.	.
=52	=52	=52	=52	=52	=52	=52	=52	=52	=52	=52	=52
4.F	do-	2A]	.	2r	.	2c]	.	4a	-de-	4.a	do-
.	.	.	.	.	.	.	.	4f	-le, a-	.	.
8G	-ve	.	.	.	.	.	.	.	.	8b	-ve
4A	l'hai,	2AA	-sto,	4.A	do-	2c	-sto,	2e	-sco-	4cc	l'hai,
4A	cru-	.	.	.	.	.	.	.	.	4cc	cru-
.	.	.	.	8B	-ve	.	.	.	.	.	.
4A	-de-	4.A	do-	2c	l'hai,	4.c	do-	2e	-sto,>	4cc	-de-
4A	-le, a-	.	.	.	.	.	.	.	.	4cc	-le, a-
.	.	8B	-ve	.	.	8d	-ve	.	.	.	.
[2A	-sco-	4c	l'hai,	4.c	do-	4e	l'hai,	4.A	do-	[2cc	-sco-
.	.	4c	cru-	.	.	4e	cru-	.	.	.	.
.	.	.	.	8d	-ve	.	.	8B	-ve	.	.
=53	=53	=53	=53	=53	=53	=53	=53	=53	=53	=53	=53
2A]	.	4c	-de-	4e	l'hai,	4e	-de-	4c	l'hai,	2cc]	.
.	.	4c	-le, a-	4A	cru-	4e	-le, a-	4e	cru-	.	.
2AA	-sto,	1c	-sco-	4A	-de-	1e	-sco-	4a	-de-	2c	-sto,
.	.	.	.	4A	-le, a-	.	.	4a	-le, a-	.	.
4.A	do-	.	.	1c	-sco-	.	.	2a	-sco-	4.cc	do-
8B	-ve	.	.	.	.	.	.	.	.	8dd	-ve
4c	l'hai,	2C	-sto,	.	.	2e	-sto,	[2g	-sto,	4ee	l'hai,
4c	cru-	.	.	.	.	.	.	.	.	4ee	cru-
=54	=54	=54	=54	=54	=54	=54	=54	=54	=54	=54	=54
4c	-de-	4.c	do-	0C	-sto?	4.e	do-	2g]	.	4ee	-de-
4c	-le, a-	.	.	.	.	.	.	.	.	4ee	-le, a-
.	.	8d	-ve	.	.	8f	-ve	.	.	.	.
1c	-sco-	4e	l'hai,	.	.	4g	l'hai,	4r	.	1ee	-sco-
.	.	4e	cru-	.	.	4g	cru-	4c	cru-	.	.
.	.	4e	-de-	.	.	4g	-de-	4c	-de-	.	.
.	.	4e	-le, a-	.	.	4g	-le, a-	4c	-le, a-	.	.
2C	-sto?	[2e	-sco-	.	.	[2g	-sco-	[2c	-sco-	2e	-sto?
=55	=55	=55	=55	=55	=55	=55	=55	=55	=55	=55	=55
0E	Io	2e]	.	1r	.	2g]	.	2c]	.	1r	.
.	.	2E	-sto?	.	.	2G	-sto?	2B	-sto?	.	.
.	.	1B	Io	1G#X	Io	1r	.	1r	.	1e	Io
=56	=56	=56	=56	=56	=56	=56	=56	=56	=56	=56	=56
1.D	pur	1.d	pur	1.A	pur	0r	.	0r	.	1.f#X	pur
2C	ri-	2e	ri-	2c	ri-	.	.	.	.	2g	ri-
=57	=57	=57	=57	=57	=57	=57	=57	=57	=57	=57	=57
2G	-tor-	2d	-tor-	2B	-tor-	0r	.	0r	.	2g	-tor-
2A	-no	2c	-no	2A	-no	.	.	.	.	2e	-no
2.E	spes-	2.B	spes-	2.G#X	spes-	.	.	.	.	2.e	spes-
4E	-so a	4B	-so a	4G#i	-so a	.	.	.	.	4e	-so a
=58	=58	=58	=58	=58	=58	=58	=58	=58	=58	=58	=58
2E	pian-	2B	pian-	2G#i	pian-	0r	.	0r	.	2e	pian-
2F	-ger	2A	-ger	2A	-ger	.	.	.	.	2d	-ger
1E	vo-	1G#X	vo-	1B	vo-	.	.	.	.	1e	vo-
=59	=59	=59	=59	=59	=59	=59	=59	=59	=59	=59	=59
2E	-sco,	1G#i	-sco,	1B	-sco,	2r	.	0r	.	1.e	-sco,
2E	Ed	.	.	.	.	4r	.	.	.	.	.
.	.	.	.	.	.	4B	Ed	.	.	.	.
2A	a	1r	.	1r	.	4c	a	.	.	.	.
.	.	.	.	.	.	4d	cer-	.	.	.	.
2G#X	cer-	.	.	.	.	[2e	-car	.	.	4r	.
.	.	.	.	.	.	.	.	.	.	4b	Ed
=60	=60	=60	=60	=60	=60	=60	=60	=60	=60	=60	=60
1A	-car	2r	.	0r	.	4e]	.	1r	.	4cc	a
.	.	.	.	.	.	4d	tra	.	.	4dd	cer-
.	.	2A	Ed	.	.	4c	que-	.	.	2.ee	-car
.	.	.	.	.	.	4B	-ste er-	.	.	.	.
2r	.	4c	a	.	.	1A	-bet-	2r	.	.	.
.	.	4d	cer-	.	.	.	.	.	.	4dd	tra
2AA	tra	2e	-car,	.	.	.	.	4r	.	4cc	que-
.	.	.	.	.	.	.	.	4e	Ed	4b	-ste er-
=61	=61	=61	=61	=61	=61	=61	=61	=61	=61	=61	=61
2D	que-	0r	.	2r	.	1A	-te,	4f	a	2a	-bet-
.	.	.	.	.	.	.	.	4g	cer-	.	.
2C#X	-ste er-	.	.	4r	.	.	.	2.a	-car	2e	-te,
.	.	.	.	4E	Ed	.	.	.	.	.	.
1D	-bet-	.	.	4F	a	2r	.	.	.	2d	Ed
.	.	.	.	4G	cer-	.	.	4g	tra	.	.
.	.	.	.	[2A	-car	2d	Ed	4f	que-	4f	a
.	.	.	.	.	.	.	.	4e	-ste er-	4g	cer-
=62	=62	=62	=62	=62	=62	=62	=62	=62	=62	=62	=62
1D	-te,	2D	Ed	4A]	.	4f	a	1d	-bet-	2.a	-car
.	.	.	.	4G	tra	4g	cer-	.	.	.	.
.	.	4F	a	4F	que-	2.a	-car	.	.	.	.
.	.	4G	cer-	4E	-ste er-	.	.	.	.	4g	tra
1r	.	2.A	-car	1D	-bet-	.	.	1d	-te,	4f	que-
.	.	.	.	.	.	4g	tra	.	.	4e	-ste er-
.	.	.	.	.	.	4f	que-	.	.	[2d	-bet-
.	.	4A	tra	.	.	4e	-ste er-	.	.	.	.
=63	=63	=63	=63	=63	=63	=63	=63	=63	=63	=63	=63
0r	.	4B	que-	1G	-te, e	2d	-bet-	0r	.	2d]	.
.	.	4c	-ste er-	.	.	.	.	.	.	.	.
.	.	4d	-bet-	.	.	2B	-te, e	.	.	1g	-te,
.	.	4d	-te,	.	.	.	.	.	.	.	.
.	.	1r	.	4c	que-	4e	que-	.	.	.	.
.	.	.	.	4c	-sti	4e	-ste	.	.	.	.
.	.	.	.	4c	Va-	4e	Va-	.	.	4r	.
.	.	.	.	8B	-ghi	8d	-ghi	.	.	4g	e
.	.	.	.	8A	fio-	8c	fio-	.	.	.	.
=64	=64	=64	=64	=64	=64	=64	=64	=64	=64	=64	=64
0r	.	4r	.	2B	-ret-	2d	-ret-	1r	.	4g	que-
.	.	4G	e	.	.	.	.	.	.	4g	-sti
.	.	4C	que-	2c	-ti, o-	2e	-ti,	.	.	4g	Va-
.	.	4c	-sti	.	.	.	.	.	.	8g	-ghi
.	.	.	.	.	.	.	.	.	.	8e	fio-
.	.	4c	Va-	2A	-v'e-	2r	.	2c	e	2f#X	-ret-
.	.	8B	-ghi	.	.	.	.	.	.	.	.
.	.	8A	fio-	.	.	.	.	.	.	.	.
.	.	2B	-ret-	2G	-gli	4r	.	4d	que-	2g	-ti,
.	.	.	.	.	.	4d	e	4g	-sti	.	.
=65	=65	=65	=65	=65	=65	=65	=65	=65	=65	=65	=65
0r	.	2c	-ti, o-	2C	sia	4e	que-	4g	Va-	1r	.
.	.	.	.	.	.	4d	-sti	8f#i	-ghi	.	.
.	.	.	.	.	.	.	.	8e	fio-	.	.
.	.	2A	-v' e-	2c	na-	4c	Va-	2f#X	-ret-	.	.
.	.	.	.	.	.	8B	-ghi	.	.	.	.
.	.	.	.	.	.	8A	fio-	.	.	.	.
.	.	2G	-gli	2d	-sco-	2B	-ret-	2g	-ti, o-	4r	.
.	.	.	.	.	.	.	.	.	.	4g	e
.	.	[2F	sia	2f	-sto,	2c	-ti,	2a	-v'e-	4cc	que-
.	.	.	.	.	.	.	.	.	.	4cc	-sti
=66	=66	=66	=66	=66	=66	=66	=66	=66	=66	=66	=66
0r	.	2F]	.	2r	.	2c	<e	2f	-gli	4cc	Va-
.	.	.	.	.	.	.	.	.	.	8b	-ghi
.	.	.	.	.	.	.	.	.	.	8a	fio-
.	.	2G	na-	4r	.	4g	que-	4e	sia	2b	-ret-
.	.	.	.	4G	e	4g	-sti	4d	na-	.	.
.	.	1A	-sco-	4c	que-	4g	Va-	4c	-sco-	2cc	-ti,
.	.	.	.	4c	-sti	8f#i	-ghi	4A	-sto,	.	.
.	.	.	.	.	.	8e	fio-	.	.	.	.
.	.	.	.	4c	Va-	2f#X	-ret-	2r	.	2a	e
.	.	.	.	8B	-ghi	.	.	.	.	.	.
.	.	.	.	8A	fio-	.	.	.	.	.	.
=67	=67	=67	=67	=67	=67	=67	=67	=67	=67	=67	=67
2r	.	1G	-sto,	2B	-ret-	4.g	-ti,>	2d	e	4dd	que-
.	.	.	.	.	.	.	.	.	.	4dd	-sti
.	.	.	.	.	.	16fL	.	.	.	.	.
.	.	.	.	.	.	16eJ	.	.	.	.	.
2G	o-	.	.	2B	-ti o-	2d	.	4g	que-	4dd	Va-
.	.	.	.	.	.	.	.	4g	-sti	8cc#i	-ghi
.	.	.	.	.	.	.	.	.	.	8b	fio-
2E	-v'e-	1r	.	2G	-v'e-	2e	e	4g	Va-	2cc#X	-ret-
.	.	.	.	.	.	.	.	8f#i	-ghi	.	.
.	.	.	.	.	.	.	.	8e	fio-	.	.
2D	-gli	.	.	2A	-gli	4a	que-	2f#X	-ret-	2dd	-ti
.	.	.	.	.	.	4d	-sti	.	.	.	.
=68	=68	=68	=68	=68	=68	=68	=68	=68	=68	=68	=68
2C	sia	4r	.	2c	sia	4e	Va-	2g	-ti,	2r	.
.	.	4e	e	.	.	8g	-ghi	.	.	.	.
.	.	.	.	.	.	8e	fio-	.	.	.	.
2D	na-	4d	que-	2A	na-	2f#X	-ret-	2r	.	4r	.
.	.	4d	-sti	.	.	.	.	.	.	4dd	o-
1E	-sco-	4d	Va-	2G	-sco-	2g	-ti,	4r	.	4b	-v'e-
.	.	8c#i	-ghi	.	.	.	.	4e	<e	4a	-gli
.	.	8B	fio-	.	.	.	.	.	.	.	.
.	.	2c#X	-ret-	2G	-sto,	2r	.	4e	que-	4.g	sia
.	.	.	.	.	.	.	.	4g	-sti	.	.
.	.	.	.	.	.	.	.	.	.	8a	na-
=69	=69	=69	=69	=69	=69	=69	=69	=69	=69	=69	=69
2D	-sto,	1d	-ti,	2r	.	1r	.	4g	Va-	2b	-sco-
.	.	.	.	.	.	.	.	8f#i	-ghi	.	.
.	.	.	.	.	.	.	.	8e	fio-	.	.
2D	Ed	.	.	2d	Ed	.	.	2f#X	-ret-	2a	-sto,
4E	a	1r	.	4G	a	2r	.	1g	-ti,>	2r	.
4F	cer-	.	.	4A	cer-	.	.	.	.	.	.
[2G	-car	.	.	[2B	-car	4r	.	.	.	4r	.
.	.	.	.	.	.	4d	Ed	.	.	4b	Ed
=70	=70	=70	=70	=70	=70	=70	=70	=70	=70	=70	=70
4G]	.	0r	.	4B]	.	4e	a	0r	.	4cc	a
4F	tra	.	.	4A	tra	4f	cer-	.	.	4dd	cer-
4E	que-	.	.	4G	que-	2.g	-car	.	.	2.ee	-car
4D	-ste er-	.	.	4F	-ste er-	.	.	.	.	.	.
2C	-bet-	.	.	2E	-bet-	.	.	.	.	.	.
.	.	.	.	.	.	4f	tra	.	.	4dd	tra
2C	-te e	.	.	2G	-te e	4e	que-	.	.	4cc	que-
.	.	.	.	.	.	4d	-ste er-	.	.	4b	-ste er-
=71	=71	=71	=71	=71	=71	=71	=71	=71	=71	=71	=71
4F	que-	2r	.	4A	que-	2c	-bet-	1r	.	2a	-bet-
4F	-sti	.	.	4A	-sti	.	.	.	.	.	.
4F	Va-	4r	.	4A	Va-	2c	-ti	.	.	2a	-te
8E	-ghi	4c	<e	8G	-ghi	.	.	.	.	.	.
8D	fio-	.	.	8F	fio-	.	.	.	.	.	.
2E	-ret-	4c	que-	2G	-ret-	1r	.	4r	.	1r	.
.	.	4c	-sti	.	.	.	.	4g	e	.	.
2F	-ti o-	4c	Va-	2A	-ti o-	.	.	4f	que-	.	.
.	.	8B	-ghi	.	.	.	.	4f	-sti	.	.
.	.	8A	fio-	.	.	.	.	.	.	.	.
=72	=72	=72	=72	=72	=72	=72	=72	=72	=72	=72	=72
2D	-v'e-	2B	-ret-	2F	-v'e-	1r	.	4f	Va-	2dd	e
.	.	.	.	.	.	.	.	8e	-ghi	.	.
.	.	.	.	.	.	.	.	8d	fio-	.	.
2C	-gli	2c	-ti,>	2G	-gli	.	.	2e	-ret-	4g	que-
.	.	.	.	.	.	.	.	.	.	4cc	-sti
2F	sia	1r	.	2A	sia	2c	e	2f	-ti,	4cc	Va-
.	.	.	.	.	.	.	.	.	.	8b	-ghi
.	.	.	.	.	.	.	.	.	.	8a	fio-
2G	na-	.	.	2d	na-	4g	que-	2r	.	2b	-ret-
.	.	.	.	.	.	4g	-sti	.	.	.	.
=73	=73	=73	=73	=73	=73	=73	=73	=73	=73	=73	=73
1A	-sco-	4r	.	2c	-sco-	4g	Va-	2r	.	1cc	-ti
.	.	4A	e	.	.	8f	-ghi	.	.	.	.
.	.	.	.	.	.	8e	fio-	.	.	.	.
.	.	4c	que-	2A	-sto,	2f#X	-ret-	4r	.	.	.
.	.	4c	-sti	.	.	.	.	4c	e	.	.
1G	-sto,	4c	Va-	1r	.	1g	-ti	4e	que-	1r	.
.	.	8B	-ghi	.	.	.	.	4d	-sti	.	.
.	.	8A	fio-	.	.	.	.	.	.	.	.
.	.	2B	-ret-	.	.	.	.	4d	Va-	.	.
.	.	.	.	.	.	.	.	8c	-ghi	.	.
.	.	.	.	.	.	.	.	8B	fio-	.	.
=74	=74	=74	=74	=74	=74	=74	=74	=74	=74	=74	=74
1C	o-	1e	-ti	1G	o-	1r	.	1c	-ret-	1r	.
2AA	-v'e-	2r	.	2A	-v'e-	1e	o-	1c	-ti o-	1cc	o-
2GG	-gli	4r	.	2B	-gli	.	.	.	.	.	.
.	.	4E	o-	.	.	.	.	.	.	.	.
=75	=75	=75	=75	=75	=75	=75	=75	=75	=75	=75	=75
1.FF	sia	2A	-v'e-	1c	sia	2f	-v'e-	2c	-v'e-	2a	-v'e-
.	.	2B	-gli	.	.	2g	-gli	2B	-gli	2g	-gli
.	.	2c	sia	1C	na-	2a	sia	2A	sia	2f	sia
2EE	na-	2c	na-	.	.	2g	na-	2e	na-	2g	na-
=76	=76	=76	=76	=76	=76	=76	=76	=76	=76	=76	=76
1FF	-sco-	4.A	-sco-	1C	-sco-	1f	-sco-	1c	-sco-	1a	-sco-
.	.	8G	.	.	.	.	.	.	.	.	.
.	.	2F	.	.	.	.	.	.	.	.	.
0Cl	-sto.	0Gl	-sto.	0Cl	-sto.	0el	-sto.	0cl	-sto.	0gl	-sto.
==	==	==	==	==	==	==	==	==	==	==	==
*-	*-	*-	*-	*-	*-	*-	*-	*-	*-	*-	*-
!!!system-decoration: [*]
!!!RDF**kern: i = editorial accidental
!!!RDF**kern: l = terminal long
!!!ENC: Emiliano Ricciardi
!!!END: 2019
!!!EED: Coluzzi, Seth
!!!EEV: 2019/05/13
!!!YEC: Copyright 2018 Emiliano Ricciardi, All Rights Reserved
!!!ONB: Translated from MusicXML on 2019/05/13
!!@@BEGIN:	VERSEDATA
!!@SOLERTI:	395
!!@CATALOGNUM:	Trm0395
!!@LAST_MODIFIED: 2020/07/12
!!@TITLE:		In un bel bosco di leggiadre fronde
!!@GENRE:		sonetto
!!@MANUSRC:	Pt
!!@PRINTSRC:	10, 11, 12, 13, 16, 21, 25, 25a), 30, 34, 68, 141, 166, 169
!!@@BEGIN:	VERSES
!!@ABOUTIT:	Ad istanza di messer Alfonso Bosco.
!!@ABOUTEN:	On behald of sir Alfonso Bosco.
!!@EDITOR:	Solerti, Angelo
!!@EDITION_TITLE: Le Rime di Torquato Tasso
!!@EDITION_LOC:	Bologna
!!@EDITION_PUB:	Romagnoli-Dall’Acqua
!!@EDITION_DATE:  1898-1902
!!@EDITION_VOL:	2
!!@EDITION_PAGE:  437
!!@TRANSLATOR:	Emiliano Ricciardi and Amyrose McCue Gill
!!@VERSE:
!!	In un bel bosco di leggiadre fronde
!!	Ch'ombra si fa con le ramose braccia,
!!	Amor, che va de l'alme nostre a caccia
!!	Tese le reti di due trecce bionde;
!!@VERSE:
!!	Così il mio cor, c'havea di due gioconde
!!	Luci seguita la fallace traccia,
!!	Preso restò, com'animal s'allaccia
!!	Ne' bei legami ch'e' ne l'ombra asconde.
!!@VERSE:
!!	O dolce laccio, o vaghe reti, o bosco
!!	Vezzoso, o cacciator che mi togliesti
!!	Il core, dove l'hai, crudele, ascosto?
!!@VERSE:
!!	Io pur ritorno spesso a pianger vosco,
!!	Ed a cercar tra queste erbette e questi
!!	Vaghi fioretti ov'egli sia nascosto.
!!@TVERSE:
!!	In a beautiful wood of graceful fronds
!!	Whose shade is made with thickly spreading branches,
!!	Love, who goes hunting for our souls,
!!	Cast a net of two blonde tresses.
!!@TVERSE:
!!	Thus my heart, which had followed
!!	The false trail of two delightful eyes,
!!	Was caught, as an animal entraps himself
!!	In the beautiful bonds that one hides in the shade.
!!@TVERSE:
!!	O sweet snare, O lovely net, O charming wood,
!!	O hunter who took from me
!!	My heart, where have you, cruel one, hidden it?
!!@TVERSE:
!!	I still return often to weep for you,
!!	And to seek among these little grasses and these
!!	Lovely little flowers for where it is hidden.
!!@@END:		VERSES
!!@OTHER_CRIT_ED:   None
!!@ATTRIBUTION_ABOUT:	Secure
!!@DATING:	In or before 1582
!!		<br>
!!		The earliest appearance of this poem in a literary source published by Aldo Manuzio in 1582 (see Literary Sources).
!!@DEDICATEE:	Bosco, Alfonso
!!@COMMENTARY:
!!@@END:		VERSEDATA
!!@@BEGIN:	SETTING
!!@CATALOGNUM:	Trm0395b
!!@RIMETITLE:	In un bel bosco leggiadre fronde
!!@SOLERTI:	395
!!@COMPOSER:	Marenzio, Luca
!!@PRINCEPSTITLE:	Il secondo libro de madrigali a sei voci
!!@PRINCEPSLOC:	Venetia
!!@NORMLOC:	Venice
!!@NORMPUB:	Angelo Gardano
!!@NORMPUBSHORT:	Gardano
!!@PRINCEPSPUB:	Gardano
!!@PRINCEPSYEAR:	1584
!!@PRINCEPSRISM:	M 504
!!@REPRINTS:	M0505, M0506, M0524, M1594-14
!!@OVOICES:	6
!!@EXTANTVOICES:	6
!!@PARTBOOKS:	
!!@EXTPARTBOOKS:	
!!@OCLEFS:	C1,C3,C3,C4,C4,F4
!!@OMENSURATION:	C
!!@OKEYSIG:	-
!!@FINAL:	(E)C
!!@TIMPEDITOR:	Coluzzi, Seth
!!@NOTE:		
!!@@END:		SETTING
